app/img/comments.svg

<svg width="16" height="17" viewBox="0 0 16 17" fill="none" xmlns="http://www.w3.org/2000/svg">
<path fill-rule="evenodd" clip-rule="evenodd" d="M14.6153 7.54557C14.5204 8.20339 14.2954 8.82861 13.9619 9.40355C13.9869 9.5459 13.9997 9.68979 13.9997 9.83429C13.9997 10.3362 13.8543 10.8165 13.5849 11.2529C13.4504 11.4707 13.4158 11.726 13.4025 11.8946C13.3873 12.0879 13.3924 12.2994 13.4062 12.5025C13.4217 12.7304 13.4497 12.9697 13.4818 13.1954C13.2216 13.1196 12.9395 13.0434 12.6704 12.9826C12.4465 12.9321 12.2174 12.8891 12.0099 12.8676C11.8289 12.849 11.5674 12.8345 11.3335 12.9101C10.8221 13.0754 10.2594 13.1676 9.66636 13.1676C8.96109 13.1676 8.31335 13.0424 7.74559 12.825C7.60903 12.8312 7.47147 12.8343 7.33301 12.8343C6.52993 12.8343 5.75701 12.7287 5.03385 12.5335C6.08516 13.7494 7.81828 14.501 9.66636 14.501C10.3883 14.501 11.0812 14.3901 11.7198 14.1864C11.7209 14.1865 11.723 14.1864 11.726 14.1864C11.7424 14.186 11.7879 14.1851 11.8729 14.1939C12.0067 14.2077 12.1786 14.2385 12.377 14.2833C12.7719 14.3724 13.2157 14.5038 13.5615 14.6136C14.2949 14.8464 15.0056 14.2064 14.8745 13.4621C14.8181 13.1418 14.7595 12.7508 14.7365 12.4122C14.7249 12.2419 14.7236 12.1021 14.7317 11.9995C14.7351 11.957 14.7394 11.9304 14.7421 11.9162C15.1172 11.2949 15.333 10.5874 15.333 9.83429C15.333 8.98526 15.0693 8.20995 14.6153 7.54557Z" fill="#787A80"/>
<path fill-rule="evenodd" clip-rule="evenodd" d="M3.73109 4.29943C2.83245 4.98662 2.33306 5.88871 2.33306 6.83398C2.33306 7.30534 2.45577 7.75932 2.68599 8.18147C2.77367 8.34226 2.79854 8.50812 2.80744 8.6204C2.81714 8.74283 2.8123 8.86867 2.80166 8.98633C2.78034 9.22191 2.72949 9.48884 2.66849 9.75174C2.59715 10.0593 2.50572 10.3872 2.41296 10.6952C2.76512 10.5672 3.15003 10.436 3.51493 10.3296C3.80985 10.2435 4.10767 10.1689 4.37274 10.1269C4.60108 10.0908 4.93243 10.0554 5.2177 10.1541C5.85792 10.3756 6.57411 10.5007 7.33306 10.5007C8.76451 10.5007 10.0358 10.0562 10.935 9.36854C11.8337 8.68135 12.3331 7.77926 12.3331 6.83398C12.3331 5.88871 11.8337 4.98662 10.935 4.29943C10.0358 3.61176 8.76451 3.16732 7.33306 3.16732C5.90162 3.16732 4.63034 3.61176 3.73109 4.29943ZM2.92116 3.24028C4.07283 2.35959 5.63489 1.83398 7.33306 1.83398C9.03123 1.83398 10.5933 2.35959 11.745 3.24028C12.8973 4.12145 13.6664 5.38602 13.6664 6.83398C13.6664 8.28194 12.8973 9.54652 11.745 10.4277C10.5933 11.3084 9.03123 11.834 7.33306 11.834C6.43769 11.834 5.58244 11.688 4.80591 11.4224C4.80513 11.4246 4.74215 11.4184 4.58098 11.4439C4.39521 11.4733 4.15809 11.5308 3.88836 11.6095C3.35138 11.7662 2.74835 11.9878 2.28902 12.1666C1.49327 12.4763 0.682633 11.712 0.95074 10.8979C1.09284 10.4665 1.26043 9.92121 1.36966 9.45041C1.42468 9.21324 1.46039 9.01384 1.47375 8.86618C1.47839 8.81492 1.47958 8.77756 1.47932 8.7523C1.17246 8.16592 0.99973 7.51748 0.99973 6.83398C0.99973 5.38602 1.76887 4.12145 2.92116 3.24028Z" fill="#787A80"/>
</svg>

<svg width="16" height="17" fill="none" xmlns="http://www.w3.org/2000/svg"><path fill-rule="evenodd" clip-rule="evenodd" d="M14.615 7.546a5.166 5.166 0 01-.653 1.858c.025.142.038.286.038.43 0 .502-.146.982-.415 1.419-.135.218-.17.473-.183.642-.015.193-.01.404.004.607.016.228.044.468.076.693-.26-.075-.542-.152-.812-.212a5.819 5.819 0 00-.66-.115c-.181-.019-.443-.034-.676.042a5.425 5.425 0 01-1.668.258 5.365 5.365 0 01-1.92-.343 8.824 8.824 0 01-2.712-.291C6.085 13.748 7.818 14.5 9.666 14.5a6.76 6.76 0 002.054-.315h.006c.016 0 .062 0 .147.008.134.014.306.044.504.09.395.088.839.22 1.184.33.734.232 1.445-.408 1.313-1.152-.056-.32-.115-.711-.138-1.05a2.96 2.96 0 01-.004-.413.783.783 0 01.01-.083c.375-.621.591-1.329.591-2.082 0-.849-.264-1.624-.718-2.288z" fill="#787A80"/><path fill-rule="evenodd" clip-rule="evenodd" d="M3.731 4.3c-.899.687-1.398 1.589-1.398 2.534 0 .471.123.925.353 1.347.088.161.113.327.121.44.01.122.005.248-.005.365a5.847 5.847 0 01-.134.766c-.07.307-.162.635-.255.943.352-.128.737-.259 1.102-.365.295-.087.593-.161.858-.203.228-.036.56-.072.845.027a6.48 6.48 0 002.115.347c1.432 0 2.703-.445 3.602-1.132.899-.688 1.398-1.59 1.398-2.535 0-.945-.5-1.847-1.398-2.535-.9-.687-2.17-1.132-3.602-1.132-1.431 0-2.703.445-3.602 1.132zm-.81-1.06c1.152-.88 2.714-1.406 4.412-1.406s3.26.526 4.412 1.406c1.152.881 1.921 2.146 1.921 3.594s-.769 2.713-1.921 3.594c-1.152.88-2.714 1.406-4.412 1.406-.895 0-1.75-.146-2.527-.412 0 .003-.064-.004-.225.022-.186.03-.423.087-.693.165a20.59 20.59 0 00-1.599.558c-.796.31-1.606-.455-1.338-1.27.142-.43.31-.976.419-1.447.055-.237.09-.436.104-.584a1.16 1.16 0 00.005-.114A4.117 4.117 0 011 6.834c0-1.448.77-2.713 1.922-3.594z" fill="#787A80"/></svg>
